<?xml version="1.0" encoding="UTF-8"?>
<map version="1.10" tiledversion="1.12.2" orientation="orthogonal" renderorder="right-down" width="16" height="9" tilewidth="16" tileheight="16" infinite="0" nextlayerid="3" nextobjectid="5">
 <tileset firstgid="1" source="../boarddefs/tiles.tsx"/>
 <tileset firstgid="65" source="../boarddefs/ents.tsx"/>
 <layer id="1" name="Title" width="16" height="9">
  <data encoding="csv">
1,2,2,2,2,2,2,2,2,2,2,2,2,2,2,3,
9,10,10,10,10,10,10,10,10,10,10,10,10,10,10,11,
9,10,10,10,10,10,10,10,10,10,10,10,10,10,10,11,
9,10,10,10,10,10,10,10,10,10,10,10,10,10,10,11,
9,10,10,10,10,10,10,10,10,10,10,10,10,10,10,11,
9,10,10,10,10,10,10,10,10,10,10,10,10,10,10,11,
9,10,10,10,10,10,10,10,10,10,10,10,10,10,10,11,
9,10,10,10,10,10,10,10,10,10,10,10,10,10,10,11,
17,18,18,18,18,18,18,18,18,18,18,18,18,18,18,19
</data>
 </layer>
 <objectgroup id="2" name="Entities">
  <object id="4" type="Cursor" gid="66" x="0" y="0" width="8" height="13"/>
  <object id="1" type="Text" x="80" y="36" width="96" height="8">
   <properties>
    <property name="Layer" type="int" propertytype="Layer" value="1"/>
    <property name="Pal" type="int" propertytype="Pal" value="5"/>
    <property name="Z" type="int" propertytype="Z" value="1"/>
   </properties>
   <text fontfamily="mem 5x6" pixelsize="6">void-template</text>
  </object>
 </objectgroup>
</map>
